svg/企业版2.svg

<svg width="48" height="48" viewBox="0 0 48 48" fill="none" xmlns="http://www.w3.org/2000/svg"><rect width="48" height="48" fill="#DADADA"/><mask id="path-2-inside-1_2483_15959" fill="white"><path d="M546 91L-894 90.9999L-894 -18.0001L546 -18L546 91Z"/></mask><path d="M546 91L-894 90.9999L-894 -18.0001L546 -18L546 91Z" fill="white"/><path d="M0 10C0 4.47715 4.47715 0 10 0H38C43.5229 0 48 4.47715 48 10V38C48 43.5229 43.5228 48 38 48H10C4.47715 48 0 43.5228 0 38V10Z" fill="url(#paint0_linear_2483_15959)"/><path d="M24.6396 11.8003C27.8093 11.8003 30.3835 13.6774 30.8027 16.0425L30.832 16.2075H36.5469L36.7568 16.2183C37.7913 16.3235 38.5986 17.1984 38.5986 18.2632V31.7446C38.5985 32.8802 37.6798 33.8003 36.5469 33.8003H12.6494C11.5166 33.8001 10.5988 32.8801 10.5986 31.7446V18.2632C10.5986 17.1275 11.5165 16.2077 12.6494 16.2075H18.4473L18.4766 16.0425C18.8958 13.68 21.4701 11.8003 24.6396 11.8003ZM13.8965 17.937C13.0576 17.937 12.3751 18.6188 12.375 19.4604V31.0933C12.375 31.9347 13.0547 32.6167 13.8965 32.6167H35.3086C36.1475 32.6167 36.8291 31.9349 36.8291 31.0933V19.4604C36.829 18.6191 36.1504 17.937 35.3086 17.937H13.8965ZM16.3203 20.6362H32.8184C33.3027 20.6362 33.6972 21.0306 33.6973 21.5181V28.8188C33.6972 29.3063 33.3027 29.7007 32.8184 29.7007H16.3203C15.8331 29.7006 15.4386 29.3059 15.4385 28.8188V21.5181C15.4385 21.0313 15.8354 20.6364 16.3203 20.6362ZM28.8789 21.6909C27.0512 21.6911 25.5693 23.1764 25.5693 25.0063L25.5742 25.1772C25.6653 26.9275 27.1081 28.3216 28.8789 28.3218C30.7042 28.3218 32.1865 26.8363 32.1865 25.0063C32.1865 23.1765 30.707 21.6909 28.8789 21.6909ZM24.6396 13.5435C22.6196 13.5435 20.8115 14.547 20.293 15.937L20.1924 16.2075H29.0869L28.9863 15.937C28.4678 14.547 26.6597 13.5435 24.6396 13.5435Z" fill="url(#paint1_linear_2483_15959)" stroke="url(#paint2_linear_2483_15959)" stroke-width="0.4"/><defs><linearGradient id="paint0_linear_2483_15959" x1="24" y1="-0.0519792" x2="24" y2="47.948" gradientUnits="userSpaceOnUse"><stop stop-color="#C873F5"/><stop offset="1" stop-color="#7B33BB"/></linearGradient><linearGradient id="paint1_linear_2483_15959" x1="24.5984" y1="11.6001" x2="24.5984" y2="34.0001" gradientUnits="userSpaceOnUse"><stop stop-color="#F0D8FF"/><stop offset="1" stop-color="#CD8FFF"/></linearGradient><linearGradient id="paint2_linear_2483_15959" x1="24.5984" y1="11.6001" x2="24.5984" y2="34.0001" gradientUnits="userSpaceOnUse"><stop stop-color="#F9F2FF"/><stop offset="1" stop-color="#C275FF"/></linearGradient></defs></svg>

<svg fill="none" viewBox="0 0 48 48"><path fill="#DADADA" d="M0 0h48v48H0z"/><path fill="white" d="M546 91H-894V-18H546z"/><path fill="url(#a)" d="M0 10C0 4.477 4.477 0 10 0h28c5.523 0 10 4.477 10 10v28c0 5.523-4.477 10-10 10H10C4.477 48 0 43.523 0 38z"/><path fill="url(#b)" stroke="url(#c)" stroke-width=".4" d="M24.64 11.8c3.17 0 5.744 1.877 6.163 4.243l.029.165h5.715l.21.01a2.054 2.054 0 0 1 1.842 2.045v13.482a2.054 2.054 0 0 1-2.052 2.055H12.649c-1.132 0-2.05-.92-2.05-2.055V18.263c0-1.136.918-2.055 2.05-2.056h5.798l.03-.165c.419-2.362 2.993-4.242 6.163-4.242Zm-10.744 6.137c-.838 0-1.52.682-1.521 1.523v11.633c0 .842.68 1.524 1.521 1.524H35.31c.839 0 1.52-.682 1.52-1.524V19.46a1.52 1.52 0 0 0-1.52-1.523zm2.424 2.7h16.498a.88.88 0 0 1 .88.881v7.3a.88.88 0 0 1-.88.883H16.32a.88.88 0 0 1-.882-.882v-7.3c0-.488.397-.883.882-.883ZM28.88 21.69a3.313 3.313 0 0 0-3.31 3.315l.005.171a3.314 3.314 0 0 0 3.305 3.145 3.313 3.313 0 0 0 3.308-3.316c0-1.83-1.48-3.315-3.308-3.315Zm-4.24-8.147c-2.02 0-3.828 1.003-4.346 2.393l-.1.27h8.894l-.1-.27c-.52-1.39-2.327-2.393-4.347-2.393Z"/><defs><linearGradient id="a" x1="24" x2="24" y1="-.052" y2="47.948" gradientUnits="userSpaceOnUse"><stop stop-color="#C873F5"/><stop offset="1" stop-color="#7B33BB"/></linearGradient><linearGradient id="b" x1="24.598" x2="24.598" y1="11.6" y2="34" gradientUnits="userSpaceOnUse"><stop stop-color="#F0D8FF"/><stop offset="1" stop-color="#CD8FFF"/></linearGradient><linearGradient id="c" x1="24.598" x2="24.598" y1="11.6" y2="34" gradientUnits="userSpaceOnUse"><stop stop-color="#F9F2FF"/><stop offset="1" stop-color="#C275FF"/></linearGradient></defs></svg>
